public/illustrations/_lock.svg

<svg width="214" height="219" viewBox="0 0 214 219" fill="none" xmlns="http://www.w3.org/2000/svg">
<path d="M34.9718 61.4678C35.609 58.8343 36.2038 56.484 36.9542 54.0204C43.8637 29.7951 58.9707 12.8047 82.6864 4.08304C97.5672 -1.52377 113.963 -1.35385 128.603 4.5786C156.312 15.3816 170.385 36.3788 174.59 65.0641C175.114 68.7029 175.086 68.8445 178.781 69.0427C185.436 69.4958 192.105 69.8073 198.774 70.1188C204.041 70.2462 206.348 71.124 207.41 78.2599C207.892 82.1819 208.076 86.2029 208.132 90.0682C208.953 108.743 209.76 127.419 210.582 146.094C211.346 163.042 211.983 179.834 212.734 196.796C212.833 200.378 213.074 203.974 213.173 207.57C213.102 208.137 213.286 208.873 213.215 209.425C213.088 216.83 211.148 218.572 203.602 218.444C187.362 218.161 171.221 218.161 155.122 217.892L61.1512 216.759L10.5198 216.207C9.10392 216.165 7.6315 216.391 6.35722 216.377C2.33616 216.561 0.042476 214.395 0 210.402C0.155745 197.291 0.32576 184.166 0.467346 171.183C0.566457 159.629 0.523787 148.048 0.622898 136.494C0.722009 124.941 0.962789 113.402 1.0619 101.848C1.16101 92.4327 1.10451 83.1446 1.20362 73.7292C1.26026 71.1665 1.31663 68.6038 1.64228 66.0694C2.12367 62.4165 3.76615 60.7741 7.37661 60.5475C10.9871 60.321 14.5128 60.6325 18.194 60.8307C22.5974 60.9865 26.9723 61.4254 31.2341 61.5528C32.3809 61.5528 33.6694 61.4537 34.8304 61.3121L34.9576 61.4678H34.9718ZM10.619 205.772L200.288 207.839C200.855 207.91 201.591 207.726 202.186 207.514C202.186 207.514 202.469 207.556 202.497 207.273C202.497 207.273 202.54 206.99 202.851 206.749C200.968 164.797 199.099 122.704 197.287 80.1997L11.9498 71.2798C11.5959 116.078 11.1288 160.72 10.7607 205.659L10.6048 205.786L10.619 205.772ZM164.34 68.1366C164.779 43.2033 142.705 12.4366 110.183 10.0014C72.5632 7.16965 48.1821 38.2336 45.5061 62.8696C51.0846 63.889 56.847 63.5067 62.6379 63.9881C62.8361 62.4448 63.2751 61.3546 63.4167 60.236C65.5546 50.5232 70.9774 41.9573 78.6514 35.685C86.4528 29.5685 96.0384 26.2696 106.02 26.3121C115.988 26.482 125.63 30.3331 133.006 37.1575C140.411 43.8546 145.041 53.0293 146.302 63.0536L146.868 67.4145L161.777 68.0941C162.612 68.2074 163.334 68.1507 164.34 68.1507V68.1366ZM135.668 66.7773C137.155 59.8396 131.137 47.0403 121.75 41.3768C116.328 38.092 110.239 36.5771 103.939 36.7328C97.638 36.8885 91.6491 38.9699 86.4529 42.5661C78.7222 48.1163 72.6199 58.5937 73.7951 63.7474L135.527 66.7632H135.668V66.7773Z" fill="#102185"/>
<path d="M124.809 137.033C126.762 146.009 128.858 154.986 130.826 163.962C131.293 165.874 131.605 167.785 131.789 169.654C131.973 170.39 131.86 171.24 131.619 172.061C131.378 172.882 131.138 173.562 130.614 174.213C130.09 174.864 129.467 175.346 128.844 175.7C128.094 176.025 127.329 176.351 126.465 176.379C122.09 177.087 117.602 177.498 113.1 178.036C107.281 178.843 101.461 179.636 95.6561 180.301C93.9146 180.499 92.0739 180.4 90.2474 180.16C86.4529 179.664 84.0743 177.201 84.2867 173.378C84.584 167.842 85.3062 162.376 86.1699 156.911C86.8495 151.715 88.1095 146.604 89.2139 141.464C89.3413 140.487 89.4688 139.496 89.3273 138.477C89.1715 137.457 88.7327 136.537 87.9823 135.73C85.5894 132.275 83.961 128.339 83.2106 124.247C82.4602 120.156 82.8848 115.922 84.145 111.802C87.1325 101.056 95.0898 95.9726 105.227 94.8824C108.994 94.5285 112.944 94.8966 116.654 95.9585C126.239 99.0875 131.605 107.073 132.27 117.154C132.511 120.75 132.03 124.403 130.854 127.815C129.552 131.213 127.442 134.215 124.823 136.735L124.781 137.018L124.809 137.033ZM120.363 166.44C120.151 164.84 119.952 164.104 119.783 163.226C117.928 154.561 116.073 145.882 114.204 137.358C113.821 135.886 113.878 134.456 114.346 133.096C114.813 131.737 115.677 130.562 116.951 129.585C118.862 128.127 120.264 126.173 121.142 123.851C124.483 113.728 118.182 105.176 107.592 105.346C102.141 105.487 97.1571 107.54 95.0332 112.821C92.4705 119.193 92.612 125.776 97.7516 131.171C98.8843 132.318 99.7053 133.719 100.059 135.334C100.413 136.948 100.499 138.533 100.003 140.034C98.7287 146.434 97.4543 152.834 96.3216 159.262C95.4437 162.716 95.0898 166.383 95.3305 169.98L120.221 166.412H120.363V166.44Z" fill="#102185"/>
<path d="M31.602 180.994C32.3099 181.093 33.0035 181.178 33.5132 181.674C34.1787 182.042 34.6885 182.537 35.0424 183.019C35.3964 183.642 35.7364 184.251 35.9488 184.845C36.1329 185.581 36.1895 186.304 35.9488 186.983C35.8497 187.691 35.7645 188.385 35.3964 189.05C35.0283 189.716 34.5328 190.225 34.0514 190.579C33.4143 191.061 32.8195 191.273 32.2249 191.486C31.4886 191.67 30.7665 191.726 30.0869 191.486C29.379 191.387 28.6992 191.16 28.1754 190.806C27.5099 190.438 27.0004 189.942 26.6465 189.461C26.2925 188.838 25.9525 188.229 25.7401 187.634C25.556 186.898 25.4996 186.176 25.5846 185.61C25.6837 184.902 25.7686 184.208 26.2783 183.557C26.6464 182.891 27.1419 182.382 27.6233 182.028C28.1189 181.518 28.8552 181.334 29.4498 181.122C30.1861 180.937 30.7665 180.867 31.4744 180.966H31.6162L31.602 180.994Z" fill="#102185"/>
<path d="M180.777 100.447C180.069 100.348 179.532 100.136 178.866 99.7674C178.342 99.4134 177.833 98.9179 177.464 98.4365C177.096 97.9551 176.77 97.2047 176.558 96.61C176.346 96.0154 176.445 95.3074 176.544 94.6137C176.728 93.212 177.464 92.0227 178.555 91.3147C179.673 90.4652 180.99 90.2104 182.392 90.3944C183.793 90.5785 184.982 91.3147 185.69 92.4049C186.54 93.5234 186.795 94.8402 186.611 96.2419C186.427 97.6436 185.691 98.8329 184.6 99.5409C183.482 100.39 182.165 100.645 180.763 100.461L180.777 100.447Z" fill="#102185"/>
<path d="M184.855 194.955C183.453 194.771 182.264 194.035 181.556 192.945C180.706 191.826 180.452 190.51 180.636 189.108C180.735 188.4 180.947 187.862 181.315 187.197C181.669 186.673 182.165 186.163 182.788 185.823C183.411 185.483 184.02 185.129 184.6 185.059C185.195 184.846 185.903 184.945 186.596 185.044C187.857 185.214 189.046 185.936 189.768 187.027C190.476 188.117 190.886 189.32 190.731 190.58C190.575 191.841 190.419 191.826 190.051 192.492C189.697 193.016 189.202 193.525 188.706 194.021C188.225 194.389 187.616 194.729 186.879 194.927C186.285 195.139 185.563 195.182 184.855 195.083V194.941V194.955Z" fill="#102185"/>
<path d="M37.3506 92.0637C37.2515 92.7717 37.1805 93.3238 36.8124 93.9893C36.4584 94.5131 35.9629 95.0229 35.4674 95.5184C34.986 95.8866 34.2355 96.2122 33.655 96.283C32.9188 96.4671 32.3526 96.3962 31.6588 96.2971C30.3987 96.1272 29.2094 95.4051 28.4873 94.3149C27.7793 93.2247 27.5244 91.908 27.6943 90.6337C27.7934 89.9258 28.0057 89.3877 28.3597 88.8639C28.7137 88.34 29.0676 87.8161 29.6905 87.4622C30.1719 87.0941 30.7807 86.7543 31.3612 86.6835C31.9558 86.4711 32.678 86.4286 33.2444 86.4994C33.9523 86.5985 34.4903 86.8109 35.0142 87.1649C35.5381 87.5188 36.0619 87.8728 36.4159 88.4958C36.784 88.9772 37.124 89.586 37.3364 90.1948C37.5488 90.7894 37.591 91.5115 37.3786 92.0496L37.3506 92.0637Z" fill="#102185"/>
</svg>

<svg xmlns="http://www.w3.org/2000/svg" width="214" height="219" fill="none" viewBox="0 0 214 219"><path fill="#102185" d="M34.972 61.468c.637-2.634 1.232-4.984 1.982-7.448 6.91-24.225 22.017-41.215 45.732-49.937 14.881-5.607 31.277-5.437 45.917.496 27.709 10.803 41.782 31.8 45.987 60.485.524 3.639.496 3.78 4.191 3.979 6.655.453 13.324.764 19.993 1.076 5.267.127 7.574 1.005 8.636 8.14.482 3.923.666 7.944.722 11.81.821 18.674 1.628 37.35 2.45 56.025.764 16.948 1.401 33.74 2.152 50.702.099 3.582.34 7.178.439 10.774-.071.567.113 1.303.042 1.855-.127 7.405-2.067 9.147-9.613 9.019-16.24-.283-32.381-.283-48.48-.552l-93.97-1.133-50.632-.552c-1.416-.042-2.888.184-4.163.17-4.02.184-6.315-1.982-6.357-5.975.156-13.111.326-26.236.467-39.219.1-11.554.057-23.135.156-34.689s.34-23.092.439-34.646c.099-9.415.043-18.703.142-28.119.056-2.562.113-5.125.438-7.66.482-3.653 2.124-5.295 5.735-5.522 3.61-.226 7.136.086 10.817.284 4.403.155 8.778.594 13.04.722 1.147 0 2.435-.1 3.596-.24l.128.155zM10.619 205.772l189.669 2.067c.567.071 1.303-.113 1.898-.325 0 0 .283.042.311-.241 0 0 .043-.283.354-.524a56187 56187 0 0 1-5.564-126.55L11.95 71.28c-.354 44.799-.821 89.441-1.19 134.38l-.155.127zM164.34 68.137c.439-24.934-21.635-55.7-54.157-58.136-37.62-2.831-62 28.233-64.677 52.869 5.579 1.019 11.341.637 17.132 1.118.198-1.543.637-2.633.779-3.752 2.138-9.713 7.56-18.279 15.234-24.551a43.93 43.93 0 0 1 27.369-9.373 40.82 40.82 0 0 1 26.986 10.845c7.405 6.698 12.035 15.872 13.296 25.897l.566 4.36 14.909.68c.835.113 1.557.057 2.563.057zm-28.672-1.36c1.487-6.937-4.531-19.737-13.918-25.4-5.422-3.285-11.511-4.8-17.811-4.644s-12.29 2.237-17.486 5.833c-7.73 5.55-13.833 16.028-12.658 21.181l61.732 3.016h.141z"/><path fill="#102185" d="M124.809 137.033c1.953 8.976 4.049 17.953 6.017 26.929.467 1.912.779 3.823.963 5.692.184.736.071 1.586-.17 2.407s-.481 1.501-1.005 2.152a6.2 6.2 0 0 1-1.77 1.487c-.75.325-1.515.651-2.379.679-4.375.708-8.863 1.119-13.365 1.657-5.819.807-11.639 1.6-17.444 2.265-1.741.198-3.582.099-5.409-.141-3.794-.496-6.173-2.959-5.96-6.782.297-5.536 1.02-11.002 1.883-16.467.68-5.196 1.94-10.307 3.044-15.447.127-.977.255-1.968.113-2.987-.156-1.02-.594-1.94-1.345-2.747a29.6 29.6 0 0 1-4.771-11.483c-.75-4.091-.326-8.325.934-12.445 2.987-10.746 10.945-15.83 21.082-16.92a31.3 31.3 0 0 1 11.427 1.076c9.585 3.13 14.951 11.115 15.616 21.196a27.25 27.25 0 0 1-1.416 10.661c-1.302 3.398-3.412 6.4-6.031 8.92l-.042.283zm-4.446 29.407c-.212-1.6-.411-2.336-.58-3.214-1.855-8.665-3.71-17.344-5.579-25.868-.383-1.472-.326-2.902.142-4.262s1.331-2.534 2.605-3.511c1.911-1.458 3.313-3.412 4.191-5.734 3.341-10.123-2.96-18.675-13.55-18.505-5.451.141-10.435 2.194-12.559 7.475-2.562 6.372-2.421 12.955 2.719 18.35 1.132 1.147 1.953 2.548 2.307 4.163.354 1.614.44 3.199-.056 4.7-1.274 6.4-2.549 12.8-3.681 19.228a34.5 34.5 0 0 0-.992 10.718l24.891-3.568h.142zM31.602 180.994c.708.099 1.402.184 1.911.68a4.8 4.8 0 0 1 1.53 1.345c.353.623.693 1.232.906 1.826.184.736.24 1.459 0 2.138-.1.708-.184 1.402-.553 2.067a4.8 4.8 0 0 1-1.345 1.529c-.637.482-1.232.694-1.826.907-.736.184-1.459.24-2.138 0-.708-.099-1.388-.326-1.912-.68a4.8 4.8 0 0 1-1.529-1.345c-.354-.623-.694-1.232-.906-1.827-.184-.736-.24-1.458-.155-2.024.099-.708.184-1.402.693-2.053a4.8 4.8 0 0 1 1.345-1.529c.496-.51 1.232-.694 1.827-.906.736-.185 1.317-.255 2.024-.156h.142zM180.777 100.447c-.708-.099-1.245-.311-1.911-.68a6.3 6.3 0 0 1-1.402-1.33c-.368-.482-.694-1.232-.906-1.827s-.113-1.303-.014-1.996c.184-1.402.92-2.591 2.011-3.3 1.118-.849 2.435-1.104 3.837-.92 1.401.184 2.59.92 3.298 2.01.85 1.12 1.105 2.436.921 3.838s-.92 2.59-2.011 3.299c-1.118.849-2.435 1.104-3.837.92zM184.855 194.955c-1.402-.184-2.591-.92-3.299-2.01-.85-1.119-1.104-2.435-.92-3.837.099-.708.311-1.246.679-1.911.354-.524.85-1.034 1.473-1.374s1.232-.694 1.812-.764c.595-.213 1.303-.114 1.996-.015 1.261.17 2.45.892 3.172 1.983.708 1.09 1.118 2.293.963 3.553-.156 1.261-.312 1.246-.68 1.912-.354.524-.849 1.033-1.345 1.529a5.2 5.2 0 0 1-1.827.906c-.594.212-1.316.255-2.024.156v-.142zM37.35 92.064c-.099.708-.17 1.26-.538 1.925-.354.524-.85 1.034-1.345 1.53-.481.368-1.231.693-1.812.764-.736.184-1.302.113-1.996.014a4.58 4.58 0 0 1-3.172-1.982c-.708-1.09-.963-2.407-.793-3.681.1-.708.312-1.246.666-1.77s.708-1.048 1.33-1.402c.482-.368 1.09-.708 1.671-.779.595-.212 1.317-.254 1.883-.184.708.1 1.246.312 1.77.666s1.048.708 1.402 1.33c.368.482.708 1.091.92 1.7.213.594.255 1.317.043 1.855z"/></svg>
